packages/core/src/svgs/mir.svg

<svg width="24" height="24" viewBox="0 0 24 24" fill="none" xmlns="http://www.w3.org/2000/svg">
<g clip-path="url(#clip0_31_13907)">
<path d="M0 0H24V24H0V0Z" fill="#F0F3FA"/>
<path fill-rule="evenodd" clip-rule="evenodd" d="M5.58301 7.42481L10.1722 5.49623C10.8429 5.22966 12.474 4.85552 13.6329 5.49623C14.7917 6.13781 14.7652 6.85738 14.6074 7.13681L18.6707 8.03852L17.0044 8.92738L13.4409 8.03852L12.1719 8.53952L14.8376 10.0044L12.6459 11.1941L5.58301 7.42481ZM9.71272 7.19252L11.2899 6.54238C11.4874 6.47123 11.9409 6.37095 12.1744 6.54238C12.4659 6.75581 12.3017 7.02323 12.0373 7.19252C11.826 7.32795 11.1896 7.6168 10.8982 7.74452L9.71272 7.19252Z" fill="#01D8DD"/>
<path d="M5.14282 8.16895V15.4808L6.85711 16.3624V12.0321L8.07682 14.8722L9.85711 13.3024V17.9588L12.4285 19.2857V11.8555L10.017 10.7232L8.38411 11.9712L6.85839 9.06852L5.14282 8.16895Z" fill="#00A3FE"/>
<path d="M18.8572 8.8125L12.8572 11.7825V13.5671L15 12.5321V16.2666L12.8572 17.3166V19.0862L18.8572 15.9216V14.1671L17.1429 15.1716V11.4371L18.8572 10.5371V8.8125Z" fill="#0061FE"/>
</g>
<defs>
<clipPath id="clip0_31_13907">
<rect width="24" height="24" fill="white"/>
</clipPath>
</defs>
</svg>

<svg xmlns="http://www.w3.org/2000/svg" width="24" height="24" fill="none" viewBox="0 0 24 24"><g clip-path="url(#a)"><path fill="#F0F3FA" d="M0 0h24v24H0z"/><path fill="#01D8DD" fill-rule="evenodd" d="m5.583 7.425 4.59-1.929c.67-.266 2.301-.64 3.46 0 1.159.642 1.132 1.361.974 1.64l4.064.903-1.667.888-3.563-.888-1.27.5 2.667 1.465-2.192 1.19zm4.13-.232 1.577-.65c.197-.072.65-.172.884 0 .292.213.128.48-.137.65-.211.135-.847.424-1.139.552z" clip-rule="evenodd"/><path fill="#00A3FE" d="M5.143 8.169v7.312l1.714.881v-4.33l1.22 2.84 1.78-1.57v4.657l2.572 1.327v-7.43l-2.412-1.133-1.633 1.248L6.858 9.07z"/><path fill="#0061FE" d="m18.857 8.813-6 2.97v1.784L15 12.532v3.735l-2.143 1.05v1.77l6-3.165v-1.755l-1.714 1.005v-3.735l1.714-.9z"/></g><defs><clipPath id="a"><path fill="#fff" d="M0 0h24v24H0z"/></clipPath></defs></svg>
